packages/kaspersky-hexa-ui-icons/src/iconsSVGs/16x12/FlagLb.svg

<svg width="16" height="12" viewBox="0 0 16 12" fill="none" xmlns="http://www.w3.org/2000/svg">
<g clip-path="url(#clip0_41816_3051)">
<rect x="0.25" y="0.25" width="15.5" height="11.5" rx="1.75" fill="white" stroke="#F5F5F5" stroke-width="0.5"/>
<mask id="mask0_41816_3051" style="mask-type:luminance" maskUnits="userSpaceOnUse" x="0" y="0" width="16" height="12">
<rect x="0.25" y="0.25" width="15.5" height="11.5" rx="1.75" fill="white" stroke="white" stroke-width="0.5"/>
</mask>
<g mask="url(#mask0_41816_3051)">
<path fill-rule="evenodd" clip-rule="evenodd" d="M0 3.2H16V0H0V3.2Z" fill="#F03340"/>
<path fill-rule="evenodd" clip-rule="evenodd" d="M0 12H16V8.8H0V12Z" fill="#F03340"/>
<path fill-rule="evenodd" clip-rule="evenodd" d="M7.39815 7.43188C7.52182 7.30203 7.52182 7.09797 7.39815 6.96812L7.35691 6.92481C7.28358 6.84781 7.17418 6.81676 7.07133 6.84376L6.88628 6.89234C6.62177 6.96177 6.45139 6.61949 6.66623 6.4503L6.86476 6.29396C6.98752 6.19729 6.91916 6 6.76291 6C6.59096 6 6.53414 5.76955 6.68639 5.68962L7.02779 5.51038C7.18004 5.43045 7.12322 5.2 6.95127 5.2C6.79502 5.2 6.72666 5.00271 6.84942 4.90604L7.6733 4.25724C7.86492 4.10633 8.13497 4.10633 8.3266 4.25724L9.15048 4.90604C9.27323 5.00271 9.20487 5.2 9.04863 5.2C8.87667 5.2 8.81985 5.43045 8.9721 5.51038L9.31351 5.68962C9.46576 5.76955 9.40894 6 9.23698 6C9.08074 6 9.01238 6.19729 9.13513 6.29396L9.33366 6.4503C9.54851 6.61949 9.37812 6.96177 9.11361 6.89234L8.92857 6.84376C8.82571 6.81676 8.71632 6.84781 8.64298 6.92481L8.60174 6.96812C8.47807 7.09797 8.47807 7.30203 8.60174 7.43188C8.80561 7.64595 8.65388 8 8.35826 8H7.64163C7.34602 8 7.19428 7.64595 7.39815 7.43188Z" fill="#1FC065"/>
</g>
</g>
<defs>
<clipPath id="clip0_41816_3051">
<rect width="16" height="12" fill="white"/>
</clipPath>
</defs>
</svg>

<svg xmlns="http://www.w3.org/2000/svg" width="16" height="12" fill="none" viewBox="0 0 16 12"><g clip-path="url(#a)"><rect width="16" height="12" fill="#fff" stroke="#f5f5f5" rx="2"/><mask id="b" width="16" height="12" x="0" y="0" maskUnits="userSpaceOnUse" style="mask-type:luminance"><rect width="16" height="12" fill="#fff" stroke="#fff" rx="2"/></mask><g fill-rule="evenodd" clip-rule="evenodd" mask="url(#b)"><path fill="#f03340" d="M0 3.2h16V0H0zM0 12h16V8.8H0z"/><path fill="#1fc065" d="M7.3982 7.4319a.336.336 0 0 0 0-.4638l-.0413-.0433a.292.292 0 0 0-.2856-.081l-.185.0485c-.2645.0695-.435-.2728-.22-.442l.1985-.1563C6.9875 6.1973 6.9192 6 6.7629 6c-.172 0-.2288-.2305-.0765-.3104l.3414-.1792c.1522-.08.0954-.3104-.0765-.3104-.1563 0-.2246-.1973-.1019-.294l.8239-.6488a.528.528 0 0 1 .6533 0l.8239.6488c.1227.0967.0544.294-.1019.294-.172 0-.2287.2305-.0765.3104l.3414.1792c.1523.08.0954.3104-.0765.3104-.1563 0-.2246.1973-.1019.294l.1986.1563c.2148.1692.0444.5115-.22.442l-.1851-.0485a.292.292 0 0 0-.2856.081l-.0413.0433a.336.336 0 0 0 0 .4638c.204.214.0522.5681-.2434.5681h-.7167c-.2956 0-.4473-.354-.2435-.5681"/></g></g><defs><clipPath id="a"><path fill="#fff" d="M0 0h16v12H0z"/></clipPath></defs></svg>
